svg/fluentui-system-icons/ic_fluent_receipt_cube_24_regular.svg

<svg width="24" height="24" viewBox="0 0 24 24" fill="none" xmlns="http://www.w3.org/2000/svg">
<path d="M4 5.25C4 4.00736 5.00736 3 6.25 3H15.75C16.9926 3 18 4.00736 18 5.25V14H22V17.75C22 19.5449 20.5449 21 18.75 21H11.6668C11.8811 20.6276 12 20.1993 12 19.753V19.5H16.5V5.25C16.5 4.83579 16.1642 4.5 15.75 4.5H6.25C5.83579 4.5 5.5 4.83579 5.5 5.25V11.0505C5.28783 11.0938 5.07996 11.1649 4.88197 11.2639L4 11.7049V5.25ZM13.75 12.5H9.59017L7.55009 11.48C7.65849 11.1992 7.93098 11 8.25 11H13.75C14.1642 11 14.5 11.3358 14.5 11.75C14.5 12.1642 14.1642 12.5 13.75 12.5ZM18 19.5H18.75C19.7165 19.5 20.5 18.7165 20.5 17.75V15.5H18V19.5ZM8.25 7C7.83579 7 7.5 7.33579 7.5 7.75C7.5 8.16421 7.83579 8.5 8.25 8.5H13.75C14.1642 8.5 14.5 8.16421 14.5 7.75C14.5 7.33579 14.1642 7 13.75 7H8.25ZM10.1708 13.9084L6.67082 12.1584C6.24853 11.9472 5.75147 11.9472 5.32918 12.1584L1.82918 13.9084C1.321 14.1624 1 14.6818 1 15.25V19.753C1 20.3211 1.321 20.8405 1.82918 21.0946L5.32918 22.8446C5.75147 23.0557 6.24853 23.0557 6.67082 22.8446L10.1708 21.0946C10.679 20.8405 11 20.3211 11 19.753V15.25C11 14.6818 10.679 14.1624 10.1708 13.9084ZM2.55279 15.2764C2.67628 15.0294 2.97662 14.9293 3.22361 15.0528L6 16.441L8.77639 15.0528C9.02338 14.9293 9.32372 15.0294 9.44721 15.2764C9.57071 15.5234 9.4706 15.8237 9.22361 15.9472L6.5 17.3091V20.5C6.5 20.7762 6.27614 21 6 21C5.72386 21 5.5 20.7762 5.5 20.5V17.3091L2.77639 15.9472C2.5294 15.8237 2.42929 15.5234 2.55279 15.2764Z" fill="#212121"/>
</svg>

<svg xmlns="http://www.w3.org/2000/svg" width="24" height="24"><path d="M4 5.25A2.25 2.25 0 0 1 6.25 3h9.5A2.25 2.25 0 0 1 18 5.25V14h4v3.75A3.25 3.25 0 0 1 18.75 21h-7.083c.214-.372.333-.8.333-1.247V19.5h4.5V5.25a.75.75 0 0 0-.75-.75h-9.5a.75.75 0 0 0-.75.75v5.8c-.212.044-.42.115-.618.214l-.882.44V5.25Zm9.75 7.25H9.59l-2.04-1.02a.75.75 0 0 1 .7-.48h5.5a.75.75 0 0 1 0 1.5Zm4.25 7h.75a1.75 1.75 0 0 0 1.75-1.75V15.5H18v4ZM8.25 7a.75.75 0 0 0 0 1.5h5.5a.75.75 0 0 0 0-1.5h-5.5Zm1.92 6.908-3.5-1.75a1.5 1.5 0 0 0-1.34 0l-3.5 1.75A1.5 1.5 0 0 0 1 15.25v4.503a1.5 1.5 0 0 0 .83 1.342l3.5 1.75a1.5 1.5 0 0 0 1.34 0l3.5-1.75a1.5 1.5 0 0 0 .83-1.342V15.25a1.5 1.5 0 0 0-.83-1.342Zm-7.617 1.368a.5.5 0 0 1 .67-.223L6 16.44l2.776-1.388a.5.5 0 1 1 .448.894L6.5 17.31v3.19a.5.5 0 1 1-1 0v-3.19l-2.724-1.363a.5.5 0 0 1-.223-.67Z"/></svg>
